mobile/24/svg/device-desktop-24.svg

<svg width="24" height="24" viewBox="0 0 24 24" fill="none" xmlns="http://www.w3.org/2000/svg">
<path fill-rule="evenodd" clip-rule="evenodd" d="M4.5 4C3.11975 4 2 5.11975 2 6.5V16.5C2 17.8802 3.11975 19 4.5 19H1V20.75H23V19H19.5C20.8802 19 22 17.8802 22 16.5V6.5C22 5.11975 20.8802 4 19.5 4H4.5ZM3.75 6.5C3.75 6.08625 4.08625 5.75 4.5 5.75H19.5C19.9138 5.75 20.25 6.08625 20.25 6.5V16.5C20.25 16.9138 19.9138 17.25 19.5 17.25H4.5C4.08625 17.25 3.75 16.9138 3.75 16.5V6.5Z" fill="black"/>
</svg>

<svg width="24" height="24" fill="none" xmlns="http://www.w3.org/2000/svg"><path fill-rule="evenodd" clip-rule="evenodd" d="M4.5 4A2.5 2.5 0 0 0 2 6.5v10A2.5 2.5 0 0 0 4.5 19H1v1.75h22V19h-3.5a2.5 2.5 0 0 0 2.5-2.5v-10A2.5 2.5 0 0 0 19.5 4h-15zm-.75 2.5a.75.75 0 0 1 .75-.75h15a.75.75 0 0 1 .75.75v10a.75.75 0 0 1-.75.75h-15a.75.75 0 0 1-.75-.75v-10z" fill="#000"/></svg>
